X:120
T:O'Mahony's
T:The Hatter's Hornpipe
T:Prendiville's Hornpipe
T:Clareman's Hornpipe
S:Geraldine Cotter
Z:Frank Claudy
R:Hornpipe
M:4/4
K:D
dB|AFEF D2 DE|FDFA d2 de|fedB AFDE|FEED E2 dB|
AFEF D2 DE|FDFA d2 de|fedB AFEF|D2 DE D2:|
dB|ABde f2 ef|gfed e2 de|f2 fe dBAF|FEED E2 dB|
AFEF D2 DE|FDFA d2 de|fedB AFEF|D2 DE D2:|

